X:107
T: MIT DEM PFEIL DEM BOGEN
N: B0595
O: Europa, Mitteleuropa, Deutschland
R: Staende -, Jaeger - Lied
M: 6/8
L: 1/16
K: F
 | F4F2A4A2 | c6A6
B4B2A2G2F2 | G6z6
G4A2B4A2 | d6d6
f4c2B2A2G2 | F6z4
AB | c4ABc4AB | c6A4
F2 | G4G2G2F2G2 | F6z4
AB | c4ABc4AB | c6A4
F2 | G4G2G2F2G2 | F6z6

